azure-patterns/svg-book-open.svg

<svg xmlns="http://www.w3.org/2000/svg" viewBox="0 0 40 39">
                                
                            
    <path d="M40,2.78571429 L40,39 L0,39 L0,2.78571429 L5.33333333,2.78571429 L5.33333333,0 L13.3333333,0 C14.5777778,0 15.6444444,0.185714286 16.8888889,0.557142857 C17.9555556,0.928571429 19.0222222,1.48571429 20.0888889,2.22857143 C20.9777778,1.67142857 22.0444444,0.928571429 23.1111111,0.557142857 C24.1777778,0.185714286 25.4222222,0 26.6666667,0 L34.6666667,0 L34.6666667,2.78571429 L40,2.78571429 Z M26.6666667,2.78571429 C25.7777778,2.78571429 24.7111111,2.97142857 23.8222222,3.34285714 C22.9333333,3.71428571 22.0444444,4.27142857 21.3333333,4.82857143 L21.3333333,32.1285714 C22.2222222,31.5714286 22.9333333,31.2 24,31.0142857 C24.8888889,30.8285714 25.7777778,30.6428571 26.6666667,30.6428571 L32,30.6428571 L32,2.78571429 L26.6666667,2.78571429 Z M8,30.6428571 L13.3333333,30.6428571 C14.2222222,30.6428571 15.1111111,30.8285714 16,31.0142857 C16.8888889,31.2 17.7777778,31.5714286 18.6666667,32.1285714 L18.6666667,4.82857143 C17.9555556,4.08571429 17.0666667,3.71428571 16.1777778,3.34285714 C15.2888889,2.97142857 14.4,2.78571429 13.3333333,2.78571429 L8,2.78571429 L8,30.6428571 Z M2.66666667,36.2142857 L19.5555556,36.2142857 C19.2,35.8428571 18.6666667,35.2857143 18.1333333,35.1 C17.6,34.7285714 17.2444444,34.5428571 16.7111111,34.1714286 C16.1777778,33.9857143 15.6444444,33.8 15.1111111,33.6142857 C14.5777778,33.4285714 14.0444444,33.4285714 13.3333333,33.4285714 L5.33333333,33.4285714 L5.33333333,5.57142857 L2.66666667,5.57142857 L2.66666667,36.2142857 Z M37.3333333,5.57142857 L34.6666667,5.57142857 L34.6666667,33.4285714 L26.6666667,33.4285714 C25.9555556,33.4285714 25.4222222,33.4285714 24.8888889,33.6142857 C24.3555556,33.8 23.8222222,33.9857143 23.2888889,34.1714286 C22.7555556,34.3571429 22.4,34.7285714 21.8666667,35.1 C21.3333333,35.4714286 20.9777778,35.8428571 20.4444444,36.2142857 L37.3333333,36.2142857 L37.3333333,5.57142857 Z"></path>
</svg>

<svg xmlns="http://www.w3.org/2000/svg" viewBox="0 0 40 39"><path d="M40 2.786V39H0V2.786h5.333V0h8c1.245 0 2.311.186 3.556.557 1.067.372 2.133.929 3.2 1.672.889-.558 1.955-1.3 3.022-1.672C24.178.186 25.422 0 26.667 0h8v2.786H40zm-13.333 0c-.89 0-1.956.185-2.845.557-.889.371-1.778.928-2.489 1.486v27.3c.89-.558 1.6-.929 2.667-1.115.889-.185 1.778-.371 2.667-.371H32V2.786h-5.333zM8 30.643h5.333c.89 0 1.778.186 2.667.371.889.186 1.778.557 2.667 1.115v-27.3c-.711-.743-1.6-1.115-2.49-1.486a7.094 7.094 0 0 0-2.844-.557H8v27.857zm-5.333 5.571h16.889c-.356-.371-.89-.928-1.423-1.114-.533-.371-.889-.557-1.422-.929l-1.6-.557c-.533-.185-1.067-.185-1.778-.185h-8V5.57H2.667v30.643zM37.333 5.571h-2.666V33.43h-8c-.711 0-1.245 0-1.778.185l-1.6.557c-.533.186-.889.558-1.422.929-.534.371-.89.743-1.423 1.114h16.89V5.571z"/></svg>
